X: 3
T: Oró Sé Do Bheath Abhaile
R: polka
M: 2/4
L: 1/8
K: Dmin
C3|:A,2DD2C|D3C2D|E2FE2D|C2A,A,2A,||
G,2CC2=B,|C2DE2D|C2=B,C2A,|G,2A,C2E||
D2A,A,2A,|D3C2D|E2FE2D|E2GG2G||
A=Bc=B2d|c2AG2E|F2DD2C| [1 D3D2C:| [2 D3A=Bc||
|:d3e2f|e2dc2A|G2FF2E|F2GA2F||
G2cc2=B|c2de2d|c2=Bc2A|G2EE^DE||
A2dd2e|{e}f3e2d|c2AG2E|G3E2G|
A=Bc=B2d|c2AG2E|F2DD2C| [1 D3A=Bc:| [2 D6|]


Tune 7480	Setting 18964

